X: 106
T:&quot;Jabadaw's Polska&quot;
M:3/4
L:1/8
Q:150
R:Polska
K:G
D>G G>F G>A|B>B A>B G>D|E>(c c)>B c>e|d>d ^c>d B>G|D>G G>F G>A|B>B A>B G
>D|E>(G G)E F2|F>(A A)F G2|G>(B B)G (3ABc|B>B A>B G>D|E>G G>E F>A|1G2G4:
|2 G2G2 B>c||:d>e (3ded f>d|g>f e>f d>B|c>e (3efe f>d|g>f e>f d>c|B>d (3
ded f>d|g>f e>f d>B|c>e c>A F>A|G>A B>c d>B|c>e c>A F>A|1G2G2 B>c:|2G2G4
||
